X:1
T:Title
L:1/8
M:4/4
K:D
V:1 treble nm="Grand Piano"
V:1
 z4 z2 z[Q:1/4=80] A | AF FE/F/ E D2 D | EFED E3 A | AF/G/ FE/F/ E D2 D | EGFE D3 A | %5
 Bc/c/ dB A3 A/A/ | Bc/c/ dB/B/ A3 A | BAGF G3 B | AGFE F3 F | GFED E2 AA/B/ | AF GE/E/ D2 d>c | %11
 dA A/G/F/G/ A2 dd/d/ | dA A/G/F/G/ A3 A/A/ | BA GF/F/ G3 B | AGFE F3 F | GFED E2 AA/B/ | %16
 AFGE D4 |] %17

